X:2
T:Coffee and Tea [1]
T:Jamie Allen's Fancy
M:C
L:1/8
R:Reel
S:Bruce & Stokoe - Northumbrian Minstrelsy  (1882)
Z:AK/Fiddler's Companion
K:G
ef|g2d2 BGdB|Gggf g2ed|g2d2 BGdB|Aefg f2ed|
g2dc Bg B/c/d/B/ |Gggf g2 ed|g2 dc BG B/c/d/B/|Aefg f2||
ed|BgBg (3def gd|BgBg f2 ed |BgBg (3egf gd|Aegf gfed|
BgBg f/g/f/e/ gd|BgBg f2 ed|BgBg f/g/f/e/ gB| Aefg f2||
